static/images/platforms/dark/web.svg

<svg xmlns="http://www.w3.org/2000/svg" viewBox="0 0 128 128"><path d="M1.408 1.408h125.184v125.185H1.408Zm114.939 95.328c-.917-5.711-4.641-10.508-15.672-14.981-3.832-1.761-8.104-3.022-9.377-5.926-.452-1.69-.512-2.642-.226-3.665.821-3.32 4.784-4.355 7.925-3.403 2.023.678 3.938 2.237 5.093 4.724 5.402-3.498 5.391-3.475 9.163-5.879-1.381-2.141-2.118-3.129-3.022-4.045-3.249-3.629-7.676-5.498-14.756-5.355l-3.688.477c-3.534.893-6.902 2.748-8.877 5.235-5.926 6.724-4.236 18.492 2.975 23.335 7.104 5.332 17.54 6.545 18.873 11.531 1.297 6.104-4.486 8.08-10.234 7.378-4.236-.881-6.592-3.034-9.139-6.949-4.688 2.713-4.688 2.713-9.508 5.485 1.143 2.499 2.344 3.63 4.26 5.795 9.068 9.198 31.76 8.746 35.83-5.176.165-.478 1.261-3.666.38-8.581ZM69.462 58.943H57.753l-.048 30.272c0 6.438.333 12.34-.714 14.149-1.713 3.558-6.152 3.117-8.175 2.427-2.059-1.012-3.106-2.451-4.319-4.485-.333-.584-.583-1.036-.667-1.071l-9.52 5.83c1.583 3.249 3.915 6.069 6.902 7.901 4.462 2.678 10.459 3.499 16.731 2.059 4.082-1.189 7.604-3.652 9.448-7.401 2.666-4.915 2.094-10.864 2.07-17.444.06-10.735.001-21.468.001-32.237Z" style="fill:#e4e4e7"/><path d="M116.84 96.653c.871 5.04-.221 8.305-.397 8.817-1.065 3.57-3.339 6.344-6.243 8.241-2.899 1.895-6.518 3.005-10.226 3.362-7.404.712-15.566-1.584-20.211-6.249-1.901-2.148-3.142-3.341-4.341-5.918l-.192-.413.398-.228a3080.735 3080.735 0 0 0 9.507-5.485l.411-.238.258.398c2.506 3.867 4.696 5.904 8.8 6.728 2.809.347 5.512.043 7.427-1.075.944-.551 1.611-1.231 2.025-2.182.418-.961.539-2.047.219-3.498-.542-2.336-3.342-3.721-6.989-5.306-3.651-1.588-8.079-3.251-11.692-5.947-3.679-2.512-6.024-6.828-6.619-11.303-.594-4.475.539-9.289 3.551-12.76 2.051-2.55 5.545-4.482 9.139-5.399l.028-.007 3.746-.484.026-.001c7.182-.123 11.792 1.826 15.13 5.512.926.942 1.687 1.962 3.078 4.117l.273.422-.424.271c-1.887 1.202-2.827 1.797-3.97 2.528-1.143.732-2.49 1.6-5.19 3.349l-.488.315-.237-.524c-1.087-2.399-2.85-3.823-4.792-4.459-1.493-.463-3.099-.433-4.506.092-1.398.522-2.449 1.434-2.785 2.97-.278.94-.218 1.75.219 3.371 1.139 2.734 5.238 3.855 9.101 5.626 11.135 4.552 14.999 9.534 15.966 15.357Zm-16.353-14.435c-3.798-1.748-8.216-3.145-9.647-6.188l-.014-.03-.011-.042c-.46-1.739-.519-2.823-.225-3.929.485-1.784 1.826-3.05 3.4-3.637 1.565-.584 3.506-.596 5.152-.109 2.101.721 3.898 2.192 5.142 4.481 2.395-1.55 3.585-2.317 4.729-3.05 1.145-.733 1.938-1.234 3.546-2.259-1.195-1.835-1.802-2.653-2.684-3.543-3.16-3.565-7.401-5.364-14.362-5.207l-3.633.47c-3.463.872-6.679 2.63-8.578 5.054-2.907 3.252-3.907 7.695-3.335 11.996.571 4.301 2.672 8.281 6.197 10.613 3.489 2.632 7.845 4.253 11.521 5.852 3.681 1.6 6.765 3.315 7.556 5.965.329 1.601.213 3.051-.268 4.155-.485 1.115-1.38 2.029-2.438 2.647-2.09 1.221-5.14 1.553-8.072 1.201-4.353-.941-6.737-3.058-9.235-6.776-2.077 1.201-3.109 1.799-4.298 2.484a2889.4 2889.4 0 0 1-4.406 2.537c1.033 2.137 2.052 3.074 3.979 5.249 4.424 4.527 12.149 6.62 19.375 5.925 3.608-.347 6.992-1.385 9.775-3.203 2.78-1.816 4.864-4.306 5.834-7.697.165-.478 1.258-3.563.368-8.353-.868-5.597-4.44-10.211-15.368-14.606Zm-30.526 8.963c.023 6.556.564 12.616-2.126 17.673-1.925 3.843-5.625 6.434-9.78 7.658-6.362 1.444-12.548.592-17.104-2.12-3.049-1.886-5.475-4.809-7.091-8.108l-.199-.408 10.177-6.232.184.129c.207.145.576.701.907 1.281 1.199 2.013 2.13 3.339 4.076 4.273.974.331 2.44.585 3.937.35 1.501-.237 2.872-.899 3.616-2.563 1.014-1.67.647-7.448.647-13.9l.049-30.771h12.708v.5c0 10.768.059 21.5-.001 32.238Zm-.999-31.738h-10.71l-.047 29.772c0 6.424.307 12.437-.773 14.385-.971 1.881-2.682 2.804-4.334 3.064-1.657.261-3.394-.045-4.443-.4l-.033-.011-.027-.013c-2.15-1.09-3.302-2.625-4.527-4.678-.335-.587-.282-.521-.351-.671l-8.755 5.361c1.54 3.023 3.584 5.508 6.509 7.287 4.367 2.643 10.169 3.433 16.346 2.002 4.003-1.155 7.362-3.483 9.125-7.138 2.637-4.772 2.044-10.618 2.019-17.221.06-10.732.003-21.136.001-31.739Z" style="fill:#e4e4e7"/></svg>

<?xml version="1.0" encoding="utf-8"?>
<svg viewBox="0 0 128 128" xmlns="http://www.w3.org/2000/svg">
  <path d="M 1.408 1.408 L 126.592 1.408 L 126.592 126.593 L 1.408 126.593 Z M 116.347 96.736 C 115.43 91.025 111.706 86.228 100.675 81.755 C 96.843 79.994 92.571 78.733 91.298 75.829 C 90.846 74.139 90.786 73.187 91.072 72.164 C 91.893 68.844 95.856 67.809 98.997 68.761 C 101.02 69.439 102.935 70.998 104.09 73.485 C 109.492 69.987 109.481 70.01 113.253 67.606 C 111.872 65.465 111.135 64.477 110.231 63.561 C 106.982 59.932 102.555 58.063 95.475 58.206 L 91.787 58.683 C 88.253 59.576 84.885 61.431 82.91 63.918 C 76.984 70.642 78.674 82.41 85.885 87.253 C 92.989 92.585 103.425 93.798 104.758 98.784 C 106.055 104.888 100.272 106.864 94.524 106.162 C 90.288 105.281 87.932 103.128 85.385 99.213 C 80.697 101.926 80.697 101.926 75.877 104.698 C 77.02 107.197 78.221 108.328 80.137 110.493 C 89.205 119.691 111.897 119.239 115.967 105.317 C 116.132 104.839 117.228 101.651 116.347 96.736 Z M 69.462 58.943 L 57.753 58.943 L 57.705 89.215 C 57.705 95.653 58.038 101.555 56.991 103.364 C 55.278 106.922 50.839 106.481 48.816 105.791 C 46.757 104.779 45.71 103.34 44.497 101.306 C 44.164 100.722 43.914 100.27 43.83 100.235 L 34.31 106.065 C 35.893 109.314 38.225 112.134 41.212 113.966 C 45.674 116.644 51.671 117.465 57.943 116.025 C 62.025 114.836 65.547 112.373 67.391 108.624 C 70.057 103.709 69.485 97.76 69.461 91.18 C 69.521 80.445 69.462 69.712 69.462 58.943 Z" style="fill: rgb(228, 228, 231);"/>
  <path d="M 116.84 96.653 C 117.711 101.693 116.619 104.958 116.443 105.47 C 115.378 109.04 113.104 111.814 110.2 113.711 C 107.301 115.606 103.682 116.716 99.974 117.073 C 92.57 117.785 84.408 115.489 79.763 110.824 C 77.862 108.676 76.621 107.483 75.422 104.906 L 75.23 104.493 L 75.628 104.265 C 78.038 102.879 79.242 102.186 80.431 101.5 C 81.619 100.815 82.791 100.137 85.135 98.78 L 85.546 98.542 L 85.804 98.94 C 88.31 102.807 90.5 104.844 94.604 105.668 C 97.413 106.015 100.116 105.711 102.031 104.593 C 102.975 104.042 103.642 103.362 104.056 102.411 C 104.474 101.45 104.595 100.364 104.275 98.913 C 103.733 96.577 100.933 95.192 97.286 93.607 C 93.635 92.019 89.207 90.356 85.594 87.66 C 81.915 85.148 79.57 80.832 78.975 76.357 C 78.381 71.882 79.514 67.068 82.526 63.597 C 84.577 61.047 88.071 59.115 91.665 58.198 L 91.693 58.191 L 95.439 57.707 L 95.465 57.706 C 102.647 57.583 107.257 59.532 110.595 63.218 C 111.521 64.16 112.282 65.18 113.673 67.335 L 113.946 67.757 L 113.522 68.028 C 111.635 69.23 110.695 69.825 109.552 70.556 C 108.409 71.288 107.062 72.156 104.362 73.905 L 103.874 74.22 L 103.637 73.696 C 102.55 71.297 100.787 69.873 98.845 69.237 C 97.352 68.774 95.746 68.804 94.339 69.329 C 92.941 69.851 91.89 70.763 91.554 72.299 C 91.276 73.239 91.336 74.049 91.773 75.67 C 92.912 78.404 97.011 79.525 100.874 81.296 C 112.009 85.848 115.873 90.83 116.84 96.653 Z M 100.487 82.218 C 96.689 80.47 92.271 79.073 90.84 76.03 L 90.826 76 L 90.815 75.958 C 90.355 74.219 90.296 73.135 90.59 72.029 C 91.075 70.245 92.416 68.979 93.99 68.392 C 95.555 67.808 97.496 67.796 99.142 68.283 C 101.243 69.004 103.04 70.475 104.284 72.764 C 106.679 71.214 107.869 70.447 109.013 69.714 C 110.158 68.981 110.951 68.48 112.559 67.455 C 111.364 65.62 110.757 64.802 109.875 63.912 C 106.715 60.347 102.474 58.548 95.513 58.705 L 91.88 59.175 C 88.417 60.047 85.201 61.805 83.302 64.229 C 80.395 67.481 79.395 71.924 79.967 76.225 C 80.538 80.526 82.639 84.506 86.164 86.838 C 89.653 89.47 94.009 91.091 97.685 92.69 C 101.366 94.29 104.45 96.005 105.241 98.655 C 105.57 100.256 105.454 101.706 104.973 102.81 C 104.488 103.925 103.593 104.839 102.535 105.457 C 100.445 106.678 97.395 107.01 94.463 106.658 C 90.11 105.717 87.726 103.6 85.228 99.882 C 83.151 101.083 82.119 101.681 80.93 102.366 C 79.742 103.052 78.673 103.667 76.524 104.903 C 77.557 107.04 78.576 107.977 80.503 110.152 C 84.927 114.679 92.652 116.772 99.878 116.077 C 103.486 115.73 106.87 114.692 109.653 112.874 C 112.433 111.058 114.517 108.568 115.487 105.177 C 115.652 104.699 116.745 101.614 115.855 96.824 C 114.987 91.227 111.415 86.613 100.487 82.218 Z M 69.961 91.181 C 69.984 97.737 70.525 103.797 67.835 108.854 C 65.91 112.697 62.21 115.288 58.055 116.512 C 51.693 117.956 45.507 117.104 40.951 114.392 C 37.902 112.506 35.476 109.583 33.86 106.284 L 33.661 105.876 L 43.838 99.644 L 44.022 99.773 C 44.229 99.918 44.598 100.474 44.929 101.054 C 46.128 103.067 47.059 104.393 49.005 105.327 C 49.979 105.658 51.445 105.912 52.942 105.677 C 54.443 105.44 55.814 104.778 56.558 103.114 C 57.572 101.444 57.205 95.666 57.205 89.214 L 57.254 58.443 L 69.962 58.443 L 69.962 58.943 C 69.962 69.711 70.021 80.443 69.961 91.181 Z M 68.962 59.443 L 58.252 59.443 L 58.205 89.215 C 58.205 95.639 58.512 101.652 57.432 103.6 C 56.461 105.481 54.75 106.404 53.098 106.664 C 51.441 106.925 49.704 106.619 48.655 106.264 L 48.622 106.253 L 48.595 106.24 C 46.445 105.15 45.293 103.615 44.068 101.562 C 43.733 100.975 43.786 101.041 43.717 100.891 L 34.962 106.252 C 36.502 109.275 38.546 111.76 41.471 113.539 C 45.838 116.182 51.64 116.972 57.817 115.541 C 61.82 114.386 65.179 112.058 66.942 108.403 C 69.579 103.631 68.986 97.785 68.961 91.182 C 69.021 80.45 68.964 70.046 68.962 59.443 Z" style="fill: rgb(228, 228, 231);"/>
</svg>
